!!!OTL: ES KANN MICH NICHTS SCHOENRES ERFREUEN
!!!ARE: Europa, Mitteleuropa, Deutschland
!!!SCT: E0048B
!!!YEM: Copyright 1995, estate of Helmut Schaffrath.
**kern
*ICvox
*Ivox
*M6/8
*k[f#]
*G:
{8d
=1
8g
8d
8g
8b
8g
8b
=2
8.dd
16ee
16dd
16cc
4b}
{16b
16cc
=3
8.dd
16ee
8dd
8dd
8cc
8cc
=4
4b
8r}
{4.dd
=5
8b
8cc
8dd
8ee
8dd
8cc
=6
4.b
4a
8r}
=7
{4.b
8cc
8dd
8ee
=8
8.dd
16ee
16dd
16cc
4b}
{8cc
=9
8.dd
16ee
8dd
8dd
8cc
8cc
=10
4.b
4r}
==
!!!AGN: erzaehlendes Volks - Lied, Sage, Mord, Ballade ?
!!!ONB: ESAC (Essen Associative Code) Database: ERK1
!!!AMT: compound duple
!!!AIN: vox
!!!EED: Helmut Schaffrath
!!!EEV: 1.0
*-
